Origami/64x64/apps/markpado.svg

<svg width="64" height="64" version="1" xmlns="http://www.w3.org/2000/svg">
 <path d="m10 56v2c0 1.662 1.338 3 3 3h38c1.662 0 3-1.338 3-3v-2c0 1.662-1.338 3-3 3h-38c-1.662 0-3-1.338-3-3z" style="opacity:.2"/>
 <path d="m54 57v-50c0-1.662-1.338-3-3-3h-38c-1.662 0-3 1.338-3 3v50c0 1.662 1.338 3 3 3h38c1.662 0 3-1.338 3-3z" style="fill:#a47f4a"/>
 <path d="m13 4c-1.662 0-3 1.338-3 3v1c0-1.662 1.338-3 3-3h38c1.662 0 3 1.338 3 3v-1c0-1.662-1.338-3-3-3h-38z" style="fill:#ffffff;opacity:.1"/>
 <path d="m33.176 21.904-5.176 19.318 2.898 0.778 5.176-19.318-2.898-0.778zm3.824 0.096v4l5 5-5 5v4l10-9-10-9zm-10 2-10 9 10 9v-4l-5-5 5-5v-4z" style="opacity:.5"/>
</svg>

<svg xmlns="http://www.w3.org/2000/svg" width="64" height="64" version="1">
 <path style="opacity:0.2" d="m 10,56 0,2 c 0,1.662 1.338,3 3,3 l 38,0 c 1.662,0 3,-1.338 3,-3 l 0,-2 c 0,1.662 -1.338,3 -3,3 l -38,0 c -1.662,0 -3,-1.338 -3,-3 z"/>
 <path style="fill:#a47f4a" d="M 54,57 54,7 C 54,5.338 52.662,4 51,4 L 13,4 c -1.662,0 -3,1.338 -3,3 l 0,50 c 0,1.662 1.338,3 3,3 l 38,0 c 1.662,0 3,-1.338 3,-3 z"/>
 <path style="opacity:0.1;fill:#ffffff" d="M 13 4 C 11.338 4 10 5.338 10 7 L 10 8 C 10 6.338 11.338 5 13 5 L 51 5 C 52.662 5 54 6.338 54 8 L 54 7 C 54 5.338 52.662 4 51 4 L 13 4 z"/>
 <path style="opacity:0.5" d="M 33.176,21.904 28,41.222 30.898,42 36.074,22.682 33.176,21.904 Z M 37,22 l 0,4 5,5 -5,5 0,4 10,-9 -10,-9 z m -10,2 -10,9 10,9 0,-4 -5,-5 5,-5 0,-4 z"/>
</svg>
